src/images/baby-girl.svg

<svg width="384" height="480" viewBox="0 0 384 480" fill="none" xmlns="http://www.w3.org/2000/svg">
<path d="M320 448H256V336C256 318.327 270.327 304 288 304H320V448Z" fill="#FAA019"/>
<path d="M328 480H264C259.582 480 256 476.418 256 472V448H320C328.837 448 336 455.163 336 464V472C336 476.418 332.418 480 328 480Z" fill="#F0915A"/>
<path d="M192 304C147.817 304 112 339.817 112 384V416H80V464C80 472.837 87.163 480 96 480H144C179.346 480 208 451.346 208 416V304H192Z" fill="#FAA019"/>
<path d="M8 477.333H16C24.837 477.333 32 470.17 32 461.333V408H8C3.582 408 0 411.582 0 416V469.333C0 473.752 3.582 477.333 8 477.333V477.333Z" fill="#FAB991"/>
<path d="M144 304C99.817 304 64 339.817 64 384V408H32V464C32 472.837 39.163 480 48 480H96C131.346 480 160 451.346 160 416H208V448H272V409.324C300.25 396.977 320 368.802 320 336V304H144Z" fill="#FFD205"/>
<path d="M280 480H216C211.582 480 208 476.418 208 472V448H272C280.837 448 288 455.163 288 464V472C288 476.418 284.418 480 280 480Z" fill="#FAB991"/>
<path d="M288 336C305.673 336 320 321.673 320 304C320 286.327 305.673 272 288 272C270.327 272 256 286.327 256 304C256 321.673 270.327 336 288 336Z" fill="#D7E6F0"/>
<path d="M256 48C185.307 48 128 105.308 128 176C128 246.692 185.307 304 256 304H304C348.183 304 384 268.183 384 224V176C384 105.308 326.693 48 256 48Z" fill="#FAB991"/>
<path d="M321.031 65.714C298.659 52.501 273.131 46.688 247.977 48.258L128.259 167.977C126.689 193.131 132.502 218.659 145.715 241.031L321.031 65.714Z" fill="#FFD205"/>
<path d="M224 176V256C201.909 256 184 238.091 184 216C184 193.909 201.909 176 224 176Z" fill="#F0915A"/>
<path d="M284 200C290.627 200 296 194.627 296 188C296 181.373 290.627 176 284 176C277.373 176 272 181.373 272 188C272 194.627 277.373 200 284 200Z" fill="#463C4B"/>
<path d="M348 200C354.627 200 360 194.627 360 188C360 181.373 354.627 176 348 176C341.373 176 336 181.373 336 188C336 194.627 341.373 200 348 200Z" fill="#463C4B"/>
<path d="M325.333 248C319.442 248 314.666 243.224 314.666 237.333V208C326.448 208 335.999 217.551 335.999 229.333V237.333C336 243.224 331.224 248 325.333 248Z" fill="#F0915A"/>
<path d="M280 32H312V66.667H280V32Z" fill="#23AAE6"/>
<path d="M347.133 3.893L312 32V66.667L347.31 92.561C350.357 94.796 354.038 96.001 357.817 96.001H358.233C368.046 96.001 376 88.046 376 78.234V17.767C376 7.955 368.045 0 358.232 0C354.198 0 350.284 1.373 347.133 3.893V3.893Z" fill="#5AD7FF"/>
<path d="M244.867 3.893L280 32V66.667L244.69 92.561C241.643 94.796 237.962 96.001 234.183 96.001H233.767C223.955 96 216 88.045 216 78.233V17.767C216 7.955 223.955 0 233.767 0C237.802 0 241.716 1.373 244.867 3.893V3.893Z" fill="#5AD7FF"/>
<path d="M280 232H264C259.582 232 256 228.418 256 224C256 219.582 259.582 216 264 216H280C284.418 216 288 219.582 288 224C288 228.418 284.418 232 280 232Z" fill="#F0915A"/>
<path d="M368 224C368 228.418 371.582 232 376 232H383.601C383.862 229.369 384 226.702 384 224.002V216H376C371.582 216 368 219.582 368 224Z" fill="#F0915A"/>
</svg>

<svg width="384" height="480" fill="none" xmlns="http://www.w3.org/2000/svg"><path d="M320 448h-64V336a32 32 0 0132-32h32v144z" fill="#FAA019"/><path d="M328 480h-64a8 8 0 01-8-8v-24h64a16 16 0 0116 16v8a8 8 0 01-8 8z" fill="#F0915A"/><path d="M192 304a80 80 0 00-80 80v32H80v48a16 16 0 0016 16h48a64 64 0 0064-64V304h-16z" fill="#FAA019"/><path d="M8 477.33h8a16 16 0 0016-16V408H8a8 8 0 00-8 8v53.33a8 8 0 008 8z" fill="#FAB991"/><path d="M144 304a80 80 0 00-80 80v24H32v56a16 16 0 0016 16h48a64 64 0 0064-64h48v32h64v-38.68A80 80 0 00320 336v-32H144z" fill="#FFD205"/><path d="M280 480h-64a8 8 0 01-8-8v-24h64a16 16 0 0116 16v8a8 8 0 01-8 8z" fill="#FAB991"/><path d="M288 336a32 32 0 100-64 32 32 0 000 64z" fill="#D7E6F0"/><path d="M256 48c-70.7 0-128 57.3-128 128s57.3 128 128 128h48a80 80 0 0080-80v-48c0-70.7-57.3-128-128-128z" fill="#FAB991"/><path d="M321.03 65.71a127.97 127.97 0 00-73.05-17.45L128.26 167.98a127.97 127.97 0 0017.46 73.05L321.02 65.71z" fill="#FFD205"/><path d="M224 176v80a40 40 0 010-80z" fill="#F0915A"/><path d="M284 200a12 12 0 100-24 12 12 0 000 24zM348 200a12 12 0 100-24 12 12 0 000 24z" fill="#463C4B"/><path d="M325.33 248c-5.89 0-10.66-4.78-10.66-10.67V208A21.33 21.33 0 01336 229.33v8c0 5.9-4.78 10.67-10.67 10.67z" fill="#F0915A"/><path d="M280 32h32v34.67h-32V32z" fill="#23AAE6"/><path d="M347.13 3.9L312 32v34.67l35.31 25.9a17.77 17.77 0 0010.5 3.43h.42c9.82 0 17.77-7.95 17.77-17.77V17.77a17.77 17.77 0 00-28.87-13.88zM244.87 3.9L280 32v34.67l-35.31 25.9a17.77 17.77 0 01-10.5 3.43h-.42A17.77 17.77 0 01216 78.23V17.77a17.77 17.77 0 0128.87-13.88z" fill="#5AD7FF"/><path d="M280 232h-16a8 8 0 010-16h16a8 8 0 010 16zM368 224a8 8 0 008 8h7.6c.26-2.63.4-5.3.4-8v-8h-8a8 8 0 00-8 8z" fill="#F0915A"/></svg>
